svgs/unofficial/helicopter.svg

<svg height="500" width="500" xmlns="http://www.w3.org/2000/svg"><path d="m30 30h206l-206 206zm0 440v-206l206 206zm440-440h-206l206 206zm0 440v-206l-206 206zm-415.999-210h185.999v186zm391.999 0-186 186v-186zm0-20h-186v-186zm-206-186v186h-185.999z" fill-rule="evenodd"/></svg>

<svg width="500" height="500" xmlns="http://www.w3.org/2000/svg"><g fill="#000" fill-rule="evenodd"><path d="M30 30h206L30 236zM30 470V264l206 206zM470 30H264l206 206zM470 470V264L264 470zM54.001 260H240v186L54.001 260zM446 260L260 446V260h186zm0-20H260V54l186 186zM240 54v186H54.001L240 54z"/></g></svg>
